picto/gondola-lift-right-framed.svg

<svg class="color-immutable" width="30" height="30" viewBox="0 0 30 30" fill="none" xmlns="http://www.w3.org/2000/svg"><path d="M0 0H30V30H0V0Z" fill="#2D327D"/><path d="M25.5 3C26.325 3 27 3.675 27 4.5V25.5C27 26.325 26.325 27 25.5 27H4.5C3.675 27 3 26.325 3 25.5V4.5C3 3.675 3.675 3 4.5 3H25.5ZM25.5 2.625H4.5C3.46613 2.625 2.625 3.46613 2.625 4.5V25.5C2.625 26.5339 3.46613 27.375 4.5 27.375H25.5C26.5339 27.375 27.375 26.5339 27.375 25.5V4.5C27.375 3.46613 26.5339 2.625 25.5 2.625Z" fill="white"/><path d="M8.2872 8.61885L6 9.0003V9.6837L8.2872 9.30315V8.61885Z" fill="white"/><path d="M9.71252 8.38102V9.06539L24 6.68474V5.99962L9.71252 8.38102Z" fill="white"/><path d="M11.2495 14.2511H9.33765V7.72635H8.66243V14.2511H6.74978C6.33533 14.2511 6 14.5873 6 15.0011V19.3525C6 19.4509 6.01035 19.5494 6.02895 19.6459L6.77947 23.3975C6.84915 23.7485 7.15747 24 7.51507 24H10.485C10.8425 24 11.15 23.7485 11.2207 23.3975L11.9703 19.6459C11.9907 19.5494 12 19.4509 12 19.3525V15.0011C12 14.5873 11.6638 14.2511 11.2495 14.2511ZM11.2495 19.1261C11.2495 19.3332 11.0823 19.5002 10.8751 19.5002H7.12493C6.91875 19.5002 6.7506 19.3332 6.7506 19.1261V15.3763C6.7506 15.1693 6.91875 15.0011 7.12493 15.0011H10.8751C11.0823 15.0011 11.2495 15.1693 11.2495 15.3763V19.1261Z" fill="white"/></svg>

<svg class="color-immutable" width="30" height="30" viewBox="0 0 30 30" fill="none" xmlns="http://www.w3.org/2000/svg"><g clip-path="url(#a)"><path d="M0 0h30v30H0V0Z" fill="#2D327D"/><path d="M25.5 3c.825 0 1.5.675 1.5 1.5v21c0 .825-.675 1.5-1.5 1.5h-21c-.825 0-1.5-.675-1.5-1.5v-21C3 3.675 3.675 3 4.5 3h21Zm0-.375h-21A1.877 1.877 0 0 0 2.625 4.5v21c0 1.034.841 1.875 1.875 1.875h21a1.877 1.877 0 0 0 1.875-1.875v-21A1.877 1.877 0 0 0 25.5 2.625Z" fill="#fff"/><path d="M8.287 8.619 6 9v.684l2.287-.38v-.685ZM9.713 8.381v.684L24 6.685V6L9.713 8.38Z" fill="#fff"/><path d="M11.25 14.251H9.337V7.726h-.676v6.525H6.75a.75.75 0 0 0-.75.75v4.351c0 .099.01.197.029.294l.75 3.752c.07.35.378.602.736.602h2.97a.75.75 0 0 0 .736-.602l.75-3.752c.02-.097.029-.195.029-.294v-4.35a.75.75 0 0 0-.75-.75Zm0 4.875a.374.374 0 0 1-.375.374h-3.75a.374.374 0 0 1-.374-.374v-3.75c0-.207.168-.375.374-.375h3.75c.207 0 .374.168.374.375v3.75Z" fill="#fff"/></g><defs><clipPath id="a"><path fill="#fff" d="M0 0h30v30H0z"/></clipPath></defs></svg>
